Yaru++/actions/16/view-sort-descending.svg

<svg height="16" width="16" xmlns="http://www.w3.org/2000/svg">
  <path d="m3 2v3h3v-3zm8 0v8.002h-2c.348.76.736 1.534 1.166 2.322.43.781.876 1.535 1.334 2.26.45-.725.89-1.479 1.32-2.26a43.07 43.07 0 0 0 1.18-2.324h-2v-8zm-7 1h1v1h-1zm-1 3v3h3v-3zm1 1h1v1h-1zm-1 3v3h3v-3zm1 1h1v1h-1z" fill="#808080"/>
</svg>

<svg height="16" width="16" xmlns="http://www.w3.org/2000/svg">
    <path d="M3 2v3h3V2zm8 0v8.002H9c.348.76.736 1.534 1.166 2.322.43.781.876 1.535 1.334 2.26.45-.725.89-1.479 1.32-2.26A43.07 43.07 0 0014 10h-2V2zM4 3h1v1H4zM3 6v3h3V6zm1 1h1v1H4zm-1 3v3h3v-3zm1 1h1v1H4z" fill="gray" font-family="sans-serif" font-weight="400" overflow="visible" style="line-height:normal;font-variant-ligatures:none;font-variant-position:normal;font-variant-caps:normal;font-variant-numeric:normal;font-variant-alternates:normal;font-feature-settings:normal;text-indent:0;text-align:start;text-decoration-line:none;text-decoration-style:solid;text-decoration-color:#000;text-transform:none;shape-padding:0;isolation:auto;mix-blend-mode:normal;marker:none" color="#000"/>
</svg>
